X:341
T:Roger of Coverly. (p)1695.PLFD1.341
T:Sir Roger De Coverley. (p)1695.PLFD1.341
M:9/4
L:1/4
Q:3/4=100
S:Playford, Dancing Master,9th Ed,1695.
O:England;London
H:1695.
Z:Chris Partington.
K:D
A,\
|: B,/C/DD D2B AFA | E3   EB,D C2A, | B,/C/DD D2B AFA | d2D D>ED C2A, :| 
|: AFA     BGB AFA | =c2E E>FD C2A, | AFA     BGB AFA | d2D D>ED C2A, :| 
